X:1
T: Lady Diana's Jig
C:Bruce Shawyer
R:Jig
I:speed 180
K:C
M:6/8
L:1/16
G2A2G2 E4G2|A4A2 F4F2|G2A2G2 E4C2|D12|G2A2G2 E4G2|A4A2 F4A2|G2F2E2 D2E2D2|C12|
G2A2G2 E4G2|A4A2 F4F2|G2A2G2 E4C2|D12|G2A2G2 E4G2|A4A2 F4A2|G2F2E2 D2E2D2|C12|
c2d2c2 e4c2|d4B2 G4G2|A2B2A2 c4A2|G12|A2B2A2 c4A2|G4E2 C6|G2F2E2 D2E2D2|C12|
c2d2c2 e4c2|d4B2 G4G2|A2B2A2 c4A2|G12|A2B2A2 c4A2|G4E2 C6|G2F2E2 D2E2D2|C12||
